images/heart.svg

<svg xmlns="http://www.w3.org/2000/svg" width="20" height="20" fill="none" viewBox="0 0 20 20"><path fill="#000" d="M9.9 19a1 1 0 0 1-.8-.4l-7-7.9A5.4 5.4 0 0 1 6.5 2C7.8 2 9 2.5 10 3.3a5.5 5.5 0 0 1 9 4.1c0 1.3-.5 2.5-1.3 3.4l-7 7.9c-.2.2-.4.3-.8.3Zm-6-9.5 6.1 6.9 6.2-7c.5-.5.7-1.2.7-2 0-1.8-1.5-3.3-3.3-3.3-1 0-2 .5-2.7 1.3-.3.3-.6.4-.9.4-.3 0-.6-.2-.8-.4a3.7 3.7 0 0 0-2.7-1.3 3.3 3.3 0 0 0-3.3 3.3c-.1.9.3 1.6.7 2.1-.1 0-.1 0 0 0Z"/></svg>

<svg width="20" height="20" viewBox="0 0 20 20" fill="none" xmlns="http://www.w3.org/2000/svg">
<path d="M9.9 19C9.6 19 9.3 18.9 9.1 18.6C3.7 12.5 2.4 11.1 2.1 10.7C1.4 9.8 1 8.6 1 7.4C1 4.4 3.4 2 6.5 2C7.8 2 9 2.5 10 3.3C11 2.5 12.3 2 13.5 2C16.5 2 19 4.4 19 7.4C19 8.7 18.5 9.9 17.7 10.8L10.7 18.7C10.5 18.9 10.3 19 9.9 19ZM3.9 9.5C4.2 9.9 7.4 13.5 10 16.4L16.2 9.4C16.7 8.9 16.9 8.2 16.9 7.4C16.9 5.6 15.4 4.1 13.6 4.1C12.6 4.1 11.6 4.6 10.9 5.4C10.6 5.7 10.3 5.8 10 5.8C9.7 5.8 9.4 5.6 9.2 5.4C8.5 4.6 7.5 4.1 6.5 4.1C4.7 4.1 3.2 5.6 3.2 7.4C3.1 8.3 3.5 9 3.9 9.5C3.8 9.5 3.8 9.5 3.9 9.5Z" fill="black"/>
</svg>
